conda/linux/freecad_weekly.svg

<?xml version="1.0" encoding="UTF-8" standalone="no"?>
<!-- Created with Inkscape (http://www.inkscape.org/) -->

<svg
   width="48"
   height="48"
   viewBox="0 0 48 48"
   version="1.1"
   id="svg1"
   xml:space="preserve"
   sodipodi:docname="freecad.svg"
   inkscape:version="1.3.2 (091e20e, 2023-11-25)"
   xmlns:inkscape="http://www.inkscape.org/namespaces/inkscape"
   xmlns:sodipodi="http://sodipodi.sourceforge.net/DTD/sodipodi-0.dtd"
   xmlns="http://www.w3.org/2000/svg"
   xmlns:svg="http://www.w3.org/2000/svg"
   xmlns:rdf="http://www.w3.org/1999/02/22-rdf-syntax-ns#"
   xmlns:cc="http://creativecommons.org/ns#"
   xmlns:dc="http://purl.org/dc/elements/1.1/"><sodipodi:namedview
     id="namedview1"
     pagecolor="#ffffff"
     bordercolor="#000000"
     borderopacity="0.25"
     inkscape:showpageshadow="2"
     inkscape:pageopacity="0.0"
     inkscape:pagecheckerboard="0"
     inkscape:deskcolor="#d1d1d1"
     inkscape:zoom="11.416667"
     inkscape:cx="24"
     inkscape:cy="23.956204"
     inkscape:window-width="1392"
     inkscape:window-height="1212"
     inkscape:window-x="2240"
     inkscape:window-y="25"
     inkscape:window-maximized="0"
     inkscape:current-layer="g1" /><title
     id="title11">FreeCAD</title><defs
     id="defs1" /><g
     id="g1"
     transform="matrix(2,0,0,2,0.11243557,0)"><path
       id="path8"
       style="fill:#418fde;fill-opacity:1;fill-rule:evenodd;stroke:none;stroke-width:2.64567;stroke-linecap:square"
       d="m 6.0004228,0 -4,4 v 20 h 8.0498052 c 0.303259,-1e-6 0.572308,-0.194978 0.666015,-0.483398 l 0.723633,-2.228516 c 0.06925,-0.213087 0.236125,-0.379987 0.449219,-0.449219 l 0.55664,-0.180664 c 0.213108,-0.06926 0.446641,-0.03307 0.62793,0.09863 l 1.895508,1.37793 c 0.245331,0.178231 0.577909,0.178228 0.823242,0 l 1.698242,-1.234375 c 0.245363,-0.178242 0.347622,-0.494774 0.253906,-0.783203 l -0.723632,-2.22754 c -0.06926,-0.213108 -0.0321,-0.446638 0.09961,-0.627929 l 0.344727,-0.473633 c 0.131696,-0.181276 0.341365,-0.289049 0.565429,-0.289063 L 20.37347,16.5 c 0.303277,10e-6 0.57231,-0.195938 0.666015,-0.484375 l 0.648438,-1.99707 c 0.0937,-0.288413 -0.0086,-0.604959 -0.253906,-0.783203 L 19.538509,11.858398 C 19.357226,11.72669 19.250418,11.517046 19.250423,11.292969 v -0.585938 c 1.9e-5,-0.224072 0.106795,-0.434715 0.288086,-0.566406 L 21.71136,8.5625 C 21.892638,8.4307938 22.000422,8.2201656 22.000423,7.9960938 V 0 Z m 0,4 h 8.0000002 4 v 4 h -8 v 3 h 4 v 4 h -4 v 5 H 6.0004228 v -4 z"
       sodipodi:nodetypes="cccccccccccccccccccccccccccccccccccccccccc" /><path
       d="M 5.9999997,19.999743 H 10.000258 V 15.000065 H 14 V 10.999806 H 10.000258 V 8.0000004 h 8 V 3.9997423 H 5.9999997 Z"
       style="fill:#fefefe;fill-opacity:1;fill-rule:evenodd;stroke:none;stroke-width:2.64567;stroke-linecap:square"
       id="path9" /></g><metadata
     id="metadata11"><rdf:RDF><cc:Work
         rdf:about=""><dc:title>FreeCAD</dc:title></cc:Work></rdf:RDF></metadata></svg>

<?xml version="1.0" encoding="UTF-8" standalone="no"?>
<!-- Created with Inkscape (http://www.inkscape.org/) -->

<svg
   width="48"
   height="48"
   viewBox="0 0 48 48"
   version="1.1"
   id="svg1"
   xml:space="preserve"
   xmlns="http://www.w3.org/2000/svg"
   xmlns:svg="http://www.w3.org/2000/svg"
   xmlns:rdf="http://www.w3.org/1999/02/22-rdf-syntax-ns#"
   xmlns:cc="http://creativecommons.org/ns#"
   xmlns:dc="http://purl.org/dc/elements/1.1/"><title
     id="title11">FreeCAD</title><defs
     id="defs1" /><g
     id="g1"
     transform="matrix(2,0,0,2,0.11243557,0)"><path
       id="path8"
       style="fill:#418fde;fill-opacity:1;fill-rule:evenodd;stroke:none;stroke-width:2.64567;stroke-linecap:square"
       d="M 6.0004228 0 L 2.0004228 4 L 2.0004228 24 L 10.050228 24 C 10.353486 23.999999 10.622536 23.805021 10.716243 23.516602 L 11.439876 21.288086 C 11.509126 21.074999 11.676001 20.908099 11.889095 20.838867 L 12.445735 20.658203 C 12.658843 20.588943 12.892376 20.625136 13.073665 20.756836 L 14.969173 22.134766 C 15.214504 22.312996 15.547082 22.312993 15.792415 22.134766 L 17.490657 20.900391 C 17.73602 20.722149 17.838279 20.405616 17.744563 20.117188 L 17.020931 17.889648 C 16.951671 17.676541 16.98883 17.44301 17.12054 17.261719 L 17.465267 16.788086 C 17.596962 16.60681 17.806633 16.499037 18.030696 16.499023 L 20.37347 16.5 C 20.676746 16.50001 20.94578 16.304062 21.039485 16.015625 L 21.687923 14.018555 C 21.781623 13.730142 21.679322 13.413595 21.434017 13.235352 L 19.538509 11.858398 C 19.357226 11.726691 19.250418 11.517046 19.250423 11.292969 L 19.250423 10.707031 C 19.250442 10.482959 19.357218 10.272316 19.538509 10.140625 L 21.71136 8.5625 C 21.892638 8.4307939 22.000422 8.2201653 22.000423 7.9960938 L 22.000423 0 L 6.0004228 0 z M 6.0004228 4 L 18.000423 4 L 18.000423 8 L 10.000423 8 L 10.000423 11 L 14.000423 11 L 14.000423 15 L 10.000423 15 L 10.000423 20 L 6.0004228 20 L 6.0004228 16 L 6.0004228 4 z " /></g><metadata
     id="metadata11"><rdf:RDF><cc:Work
         rdf:about=""><dc:title>FreeCAD</dc:title></cc:Work></rdf:RDF></metadata></svg>
